icon/indicator-rectangle-horizontal.svg

<?xml version="1.0" encoding="utf-8"?>
<!-- Generator: Adobe Illustrator 26.3.1, SVG Export Plug-In . SVG Version: 6.00 Build 0)  -->
<svg version="1.1" id="图层_1" xmlns="http://www.w3.org/2000/svg" xmlns:xlink="http://www.w3.org/1999/xlink" x="0px" y="0px"
	 viewBox="0 0 11 21" style="enable-background:new 0 0 11 21;" xml:space="preserve">
<style type="text/css">
	.st0{fill-rule:evenodd;clip-rule:evenodd;fill:#FFFFFF;}
	.st1{fill:#FFF0EF;}
	.st2{fill-rule:evenodd;clip-rule:evenodd;fill:#FFDBD9;}
	.st3{fill-rule:evenodd;clip-rule:evenodd;fill:#D9908E;}
</style>
<path class="st0" d="M0,0v20h1V1h9V0H0z"/>
<rect x="1" y="1" class="st1" width="8" height="18"/>
<path class="st2" d="M9,1h1v19H1v-1h8V1z"/>
<path class="st3" d="M10,0h1v21H0v-1h10V0z"/>
</svg>

<svg width="11" height="21" viewBox="0 0 11 21" fill="none" xmlns="http://www.w3.org/2000/svg">
<path fill-rule="evenodd" clip-rule="evenodd" d="M0 0V20H1V1H10V0Z" fill="white"/>
<rect x="1" y="1" width="8" height="18" fill="#C0C7C8"/>
<path fill-rule="evenodd" clip-rule="evenodd" d="M9 1H10V20H1V19H9Z" fill="#87888F"/>
<path fill-rule="evenodd" clip-rule="evenodd" d="M10 0H11V21H0V20H10Z" fill="black"/>
</svg>
